X:1
T:Title
%%score 1 2 3 4
L:1/8
M:4/2
K:C
V:1 treble nm="Part_1"
V:2 treble-8 nm="Part_2"
V:3 treble-8 nm="Part_3"
V:4 bass nm="Part_4"
V:1
 z16 | z16 | F8 G4 A4- | A4 G8 ^F4 | G16 | z16 | G8 A4 (3:2:1c6- | (3:2:2c2 B4 A8 ^G4 | A8 z8 | %9
 z4 c8 B4 | c8 A8 | (G8 A8) | G8 z8 | (A8 c8) | A8 G8 | (G8 F8) | (E8 F8) | z8 (D8 | G8) (G8 | %19
 A8) F8 | E8 F4 G4- | G4 F2 E2 F8 | E8 z8 | z8 (G8 | F8) E8 | F4 G8 F4 | G4 A8 G4 | (3:2:2A16 z8 | %28
 (3:2:2A16 B8 | (3c12 B4 A8 | (3:2:2G16 F8 | (3(G8 A12) G4 | (3:2:2G16 ^F8 | G16- | G16 | z16 | %36
 z8 G8 | A6 G2 A2 (B2 c4- | c2) B2 A8 ^G4 | A8 z8 | c8 A4 c4- | c2 B2 A4 G4 A4- | A4 G8 ^F4 | %43
 G8 z8 | z16 | A8 G8 | F8 G8 | F8 F8 | z4 F4 F8 | (D8 F8) | z16 | z4 D4 G8 | F4 D4 E8 | D8 z8 | %54
 (F8 G8) | A8 (A8 | G8) (G8 | A8) (G8 | E8) F4 (3:2:1G6- | (3:2:2G2 F4 E8 D4 | E16- | E16 || %62
 (A8 G8) | G4 A8 G4 | A8 A8 | A8 A8 | (A8 F8) | (G8 A8) | G4 F8 E4 | F16 |] %70
V:2
 c8 d4 e4- | e4 d8 ^c4 | d16- | d16 | d8 e4 g4- | g2 f2 e8 d4 | e16- | e16 | z8 z4 g4- | g4 f4 g8 | %10
 e8 (d8 | e8) d8 | z16 | z8 z4 g4- | g4 f4 g4 e4 | d4 (3:2:2e8 d4 d4- | d4 c4 d8 | (A8 d8) | %18
 (d8 e8) | d4 c8 B4 | c16 | z16 | z8 (d8 | c8) B8 | c4 d8 c4 | d16- | d16 | (3f12 e4 d8 | %28
 (3:2:2c8 f16 | (3g16 f4 e4 | (3d12 c4 d8 | (3(e8 f8) (d8 | (3:2:2(c8) d16) | B8 d8 | %34
 e6 d2 e2 f2 g4- | g2 f2 e8 d4 | e16- | e16 | e16 | e16 | z16 | z16 | z16 | g8 e4 g4- | %44
 g2 f2 e4 d4 e4- | e4 d8 ^c4 | d8 e8 | d8 c8 | d8 c4 c4- | c4 B4 c8 | f6 e2 d2 c2 e4- | %51
 e2 d2 d8 c4 | d4 B4 A8 | z8 (c8 | d8) e8 | (e8 d8) | (d8 e8) | (d8 B8) | c8 d4 (3:2:1e6- | %59
 (3:2:2e2 d4 c8 B4 | c12 B2 A2 | A16 || z16 | z16 | A8 c6 d2 | e4 f8 e4 | f8 z4 f4 | d4 e4 d4 c4- | %68
 c4 B4 c8- | c16 |] %70
V:3
 z16 | z16 | A8 G4 F4 | (G8 A8) | G16 | z8 z4 A4 | B4 c8 B2 A2 | (3:2:2c8 d4 B8 | A8 c8 | (c8 d8) | %10
 c4 G8 F4 | G8 z8 | z4 d8 c4 | d4 f4 e4 c4 | d8 z8 | z8 z4 A4- | A4 G4 A4 B2 c2 | d8 z8 | z16 | %19
 z16 | z4 G4 A4 G4- | (G4 c8) B4 | c4 (3:2:2A8 G4 G4- | G4 F4 G8 | z4 A8 G4 | A4 B8 A4 | B4 A4 B8 | %27
 (3:2:2A16 z8 | (3(A8 c8) d8 | (3e12 d4 c8 | (3(B8 G8) A8 | (3(B8 c8) (B8 | (3:2:2G8) A16 | G16 | %34
 z16 | z8 A8 | B4 c8 B4 | A6 B2 c4 A4 | (c8 B8) | A8 z4 A4- | A2 B2 c4 d4 A4 | c4 d4 e4 c4- | %42
 c2 d2 B2 G2 A8 | G16- | G16 | z16 | (3:2:2A8 B4 c4 c4 | A8 z4 A4- | A4 A4 A8 | z8 z4 A4 | %50
 d6 c2 B2 A2 B4- | B4 A8 G4 | A4 d8 ^c4 | d4 f4 e8 | d4 A4 B8 | z4 A8 F4 | G4 A2 B2 c4 B4 | %57
 A8 z4 d4 | c6 B2 A4 G4 | (E8 F8) | E16- | E16 || e8 e4 c4- | c4 B2 A2 B8 | A16 | z4 A6 B2 c4 | %66
 A4 d6 c2 _B2 A2 | _B8 A4 G2 F2 | E4 F4 G8 | F16 |] %70
V:4
 (3:2:2F,8 E,4 D,4 C,4 | (D,8 E,8) | D,8 z4 D,4 | B,,4 G,,4 D,8 | G,,4 G,4 E,6 F,2 | G,4 A,4 F,8 | %6
 E,8 z4 (3:2:1A,6- | (3:2:2A,2 G,4 A,4 E,8 | A,4 C6 B,2 A,2 G,2 | (A,8 G,8) | C,8 z8 | z4 G,8 F,4 | %12
 G,8 E,8 | D,8 z8 | z4 D,4 E,6 F,2 | G,8 (D,8 | E,8) D,8 | (3:2:2D,8 E,4 F,4 G,4- | G,8 C,4 G,4 | %19
 F,6 E,2 D,8 | C,8 F,4 E,4 | (C,8 D,8) | C,6 B,,2 G,,4 B,,4 | A,,8 G,,4 G,4 | A,4 D,4 E,8 | %25
 D,8 z4 D,4 | G,4 F,4 G,8 | (3:2:2D,16 z8 | (3F,12 E,4 D,8 | (3(C,8 E,8) F,8 | (3:2:2G,16 D,8 | %31
 (3(G,8 F,8) (G,8 | (3:2:2(E,8) D,16) | G,8 z4 G,4 | E,4 C,4 E,6 F,2 | G,4 A,4 F,8 | E,16 | %37
 A,,8 z4 A,,4- | A,,2 B,,2 C,2 D,2 E,8 | A,,16- | A,,8 z4 A,4- | A,2 G,2 F,4 E,4 (3:2:1F,6- | %42
 (3:2:2F,2 D,4 G,4 D,8 | E,8 z4 E,4- | E,2 F,2 G,2 A,2 B,4 G,4 | A,4 F,4 E,8 | D,8 z4 C,4 | %47
 (3:2:2D,8 E,4 F,4 F,4 | D,8 (F,8 | G,8) F,8 | F,4 D,4 G,8 | F,4 D,4 E,8 | D,8 z8 | z4 D,4 A,8 | %54
 D,4 F,4 E,8 | (A,,8 D,8) | G,,8 z4 G,4- | G,4 F,4 G,8 | A,6 G,2 F,4 E,4 | (C,8 D,8) | A,,16- | %61
 A,,16 || A,,8 C,6 D,2 | E,4 F,8 E,4 | F,12 E,2 D,2 | C,4 D,8 C,4 | D,8 z4 D,4 | G,8 F,8 | %68
 C,4 D,4 C,8 | F,,16 |] %70

